public/cards/3_yellow.svg

<svg xmlns="http://www.w3.org/2000/svg" width="242" height="362" fill="none"><path fill="#fff" stroke="#000" stroke-width="2" d="M201 1H41C18.909 1 1 18.909 1 41v280c0 22.091 17.909 40 40 40h160c22.091 0 40-17.909 40-40V41c0-22.091-17.909-40-40-40Z"/><path fill="#FA0" d="M201 21H41c-11.046 0-20 8.954-20 20v280c0 11.046 8.954 20 20 20h160c11.046 0 20-8.954 20-20V41c0-11.046-8.954-20-20-20Z"/><path fill="#fff" fill-rule="evenodd" d="M181 81C92.634 81 21 152.634 21 241c0 22.091 17.909 40 40 40 88.366 0 160-71.634 160-160 0-22.091-17.909-40-40-40Z" clip-rule="evenodd"/><path fill="#FA0" d="M121 121c-16.569 0-30 13.431-30 30h20c0-5.523 4.477-10 10-10s10 4.477 10 10-4.477 10-10 10h-12v20h12c11.08 0 20 8.92 20 20s-8.92 20-20 20-20-8.92-20-20H81c0 22.16 17.84 40 40 40s40-17.84 40-40c0-13.176-6.353-24.72-16.125-32 3.808-5.03 6.125-11.205 6.125-18 0-16.569-13.431-30-30-30Z"/><path fill="#fff" d="M51 31c-8.284 0-15 6.716-15 15h10a5 5 0 1 1 5 5h-6v10h6c5.54 0 10 4.46 10 10s-4.46 10-10 10-10-4.46-10-10H31c0 11.08 8.92 20 20 20s20-8.92 20-20c0-6.588-3.177-12.36-8.063-16C64.841 52.485 66 49.397 66 46c0-8.284-6.716-15-15-15Zm140 300c8.284 0 15-6.716 15-15h-10a5 5 0 1 1-5-5h6v-10h-6c-5.54 0-10-4.46-10-10s4.46-10 10-10 10 4.46 10 10h10c0-11.08-8.92-20-20-20s-20 8.92-20 20c0 6.588 3.177 12.36 8.062 16-1.903 2.515-3.062 5.603-3.062 9 0 8.284 6.716 15 15 15Z"/></svg>

<svg width="242" height="362" viewBox="0 0 242 362" fill="none" xmlns="http://www.w3.org/2000/svg">
<path d="M201 1H41C18.9086 1 1 18.9086 1 41V321C1 343.091 18.9086 361 41 361H201C223.091 361 241 343.091 241 321V41C241 18.9086 223.091 1 201 1Z" fill="white" stroke="black" stroke-width="2"/>
<path d="M201 21H41C29.9543 21 21 29.9543 21 41V321C21 332.046 29.9543 341 41 341H201C212.046 341 221 332.046 221 321V41C221 29.9543 212.046 21 201 21Z" fill="#FFAA00"/>
<path fill-rule="evenodd" clip-rule="evenodd" d="M181 81C92.6344 81 21 152.634 21 241C21 263.091 38.9086 281 61 281C149.366 281 221 209.366 221 121C221 98.9086 203.091 81 181 81Z" fill="white"/>
<path d="M121 121C104.431 121 91 134.431 91 151H111C111 145.477 115.477 141 121 141C126.523 141 131 145.477 131 151C131 156.523 126.523 161 121 161H109V181H121C132.08 181 141 189.92 141 201C141 212.08 132.08 221 121 221C109.92 221 101 212.08 101 201H81C81 223.16 98.84 241 121 241C143.16 241 161 223.16 161 201C161 187.824 154.647 176.28 144.875 169C148.683 163.97 151 157.795 151 151C151 134.431 137.569 121 121 121Z" fill="#FFAA00"/>
<path d="M51 31C42.7157 31 36 37.7157 36 46H46C46 43.2386 48.2386 41 51 41C53.7614 41 56 43.2386 56 46C56 48.7614 53.7614 51 51 51H45V60.9999H51C56.54 60.9999 61 65.46 61 71C61 76.54 56.54 81 51 81C45.46 81 41 76.54 41 71H31C31 82.08 39.92 91 51 91C62.08 91 71 82.08 71 71C71 64.4121 67.8234 58.6398 62.9375 55C64.8414 52.4852 66 49.3974 66 46C66 37.7157 59.2843 31 51 31Z" fill="white"/>
<path d="M191 331C199.284 331 206 324.284 206 316H196C196 318.761 193.761 321 191 321C188.239 321 186 318.761 186 316C186 313.239 188.239 311 191 311H197V301H191C185.46 301 181 296.54 181 291C181 285.46 185.46 281 191 281C196.54 281 201 285.46 201 291H211C211 279.92 202.08 271 191 271C179.92 271 171 279.92 171 291C171 297.588 174.177 303.36 179.062 307C177.159 309.515 176 312.603 176 316C176 324.284 182.716 331 191 331Z" fill="white"/>
</svg>
